X:1
T:CAPTAIN NORMAN ORR EWING
M:C|
L:1/8
Q:80
C:PM Wm. Ross
S:March
K:HP
|: {g}f3/4e/4|
{Gdc}d{g}f{GAG}A{g}B3/4c/4|
{Gdc}d2{e}A{gf}g|  !
{fg}f3/2e/2{Gdc}d{g}f|
{gfg}f{g}e{A}e{g}f3/4e/4|
{Gdc}d{g}f{GAG}A{g}B3/4c/4|  !
{Gdc}d2{e}A{gf}g|
{fg}f2{GdG}e3/2f/2|
{Gdc}d2{gdc}d:| |:  !
{gf}g|
{ag}a3/2f/2{Gdc}d{ag}a|
{fg}f{ag}a{Gdc}d{g}e/4f3/4|  !
{gf}g3/2e/2{gcd}c{gef}e|
{gBG}B{gef}e{GAG}A|1 {gf}g|1
{ag}a3/2f/2{Gdc}d{ag}a|  !
{fg}f{ag}a{Gdc}d{gf}g|
{fg}f2{GdG}e3/2f/2|
{Gdc}d2{gdc}d:|2  !
{g}f3/4e/4|
{Gdc}d{g}f{GAG}A{g}B3/4c/4|
{Gdc}d2{e}A{gf}g|  !
{fg}f2{GdG}e3/2f/2|
{Gdc}d2{gdc}d| |:
{g}f3/4e/4|  !
{Gdc}d{e}A{gBd}B{e}G|
{g}A2{Gdc}d3/2B/2|
{g}A3/2B/2{Gdc}d{g}f|  !
{gfg}f{g}e{A}e{g}f3/4e/4|
{Gdc}d{e}A{gBd}B{e}G|
{g}A2{Gdc}d{gf}g|  !
{fg}f2{GdG}e3/2f/2|
{Gdc}d2{gdc}d:| |:
{gf}g|  !
{fg}fa{fg}fd|
{g}A2{Gdc}d3/2B/2|
{g}A3/2B/2{Gdc}df|  !
{gfg}f{g}e{A}e{gf}g|
{fg}fa{fg}fd|
{g}A2{Gdc}d{gf}g|  !
{fg}f2{GdG}e3/2f/2|
{Gdc}d2{gdc}d:|

